img/svg/youtube.svg

<svg width="26" height="18" viewBox="0 0 26 18" fill="none" xmlns="http://www.w3.org/2000/svg">
<path d="M25.0781 2.8125C25.2656 3.65625 25.4531 4.96875 25.5469 6.65625L25.5938 9L25.5469 11.3438C25.4531 13.125 25.2656 14.3906 25.0781 15.2344C24.8906 15.7969 24.6094 16.2656 24.2344 16.6406C23.8125 17.0625 23.3438 17.3438 22.7812 17.4844C21.9375 17.7188 20.0625 17.8594 17.0625 17.9531L12.7969 18L8.53125 17.9531C5.53125 17.8594 3.60938 17.7188 2.8125 17.4844C2.25 17.3438 1.73438 17.0625 1.35938 16.6406C0.9375 16.2656 0.65625 15.7969 0.515625 15.2344C0.28125 14.3906 0.140625 13.125 0.046875 11.3438L0 9C0 8.34375 0 7.54688 0.046875 6.65625C0.140625 4.96875 0.28125 3.65625 0.515625 2.8125C0.65625 2.25 0.9375 1.78125 1.35938 1.35938C1.73438 0.984375 2.25 0.703125 2.8125 0.515625C3.60938 0.328125 5.53125 0.140625 8.53125 0.046875L12.7969 0L17.0625 0.046875C20.0625 0.140625 21.9375 0.328125 22.7812 0.515625C23.3438 0.703125 23.8125 0.984375 24.2344 1.35938C24.6094 1.78125 24.8906 2.25 25.0781 2.8125ZM10.1719 12.8438L16.875 9L10.1719 5.20312V12.8438Z" fill="#FF0000"/>
</svg>

<svg width="26" height="18" viewBox="0 0 26 18" fill="none" xmlns="http://www.w3.org/2000/svg"><path d="M25.078 2.813c.188.843.375 2.156.469 3.843L25.594 9l-.047 2.344c-.094 1.781-.281 3.047-.469 3.89a3.53 3.53 0 01-.844 1.407c-.422.422-.89.703-1.453.843-.843.235-2.718.375-5.718.47L12.796 18l-4.266-.047c-3-.094-4.922-.234-5.719-.469-.562-.14-1.078-.422-1.453-.843a2.718 2.718 0 01-.843-1.407c-.235-.843-.375-2.109-.47-3.89L0 9c0-.656 0-1.453.047-2.344.094-1.687.234-3 .469-3.843.14-.563.421-1.032.843-1.454.375-.375.891-.656 1.454-.843C3.609.328 5.53.14 8.53.046L12.797 0l4.265.047c3 .094 4.875.281 5.72.469a4.086 4.086 0 011.452.843c.375.422.657.891.844 1.454zm-14.906 10.03L16.875 9l-6.703-3.797v7.64z" fill="red"/></svg>
